X:1
T:Rutland Transcribed from The Psalm-Singer's Amusement, 1781
T:Various Keys, mostly A minor William Billings, 1781
T:Isaac Watts, 1719 (Psalm 17)
%%score [ 1 2 3 4 ]
L:1/8
M:4/4
K:C
V:1 treble nm="Voice"
V:2 treble nm="Voice"
V:3 treble-8 nm="Tenor"
V:4 bass nm="Bass"
V:1
 z8 | %1
 z4"^My flesh shall slumber in the ground,   in    the    ground, ________________      in the ground, in the ground, in the ground, in the ground, in the ground, __" A4 | %2
 A2 A2 G2 G2 | E2 E2 C4 | E2 E2 A4- | A8- | A8- | A8 | A4 A4 | E8 | ^F4 F4 | ^F8 | G4 F4 | D8 | %14
 D4 D4 | E8 | E4 E4 | G8- | G8- | %19
"^_____________      Till the last trumpet  joy– ful    sound.                                                           Then          burst         the      chains,                 with      sweet             sur – prise, ________" G8- | %20
 G8 | z4 A4 | e2 e2 c2 dc | B4 A4 | A6 z2 | z8 | z4 B4 | (c3 B A2) A2 | B6 B2 | (B2 c2 d2) G2 | %30
 G8- | %31
"^____    and       in     my    Sav–ior's   im – age    rise,    and   in                 my   Sav– ior's        im     –         –        age          rise.                        This life's  a  dream,  an  empty  show, but" G6 G2 | %32
 cd e2 e2 A2 | A4 A4 |[K:C] A6 A2 | A6 G2 | A4 (_B2 A2) | (_B2 cd c_B) A2 | A8 ||[M:3/4] z6 | %40
 z4 A2 | A4 G2 | A4 G2 | G G G2 G2 | %44
"^this       bright  world        to       which      I               go,                                                                                  and                     sin  –  cere,          and                              sin   –   cere," (A>B) c2 c2 | %45
 (d2 c2) B2 | (A2 B2) c2 ||[K:C][M:4/4] c8 | z8 | z8 | z8 | (c3 d ed) cd | e8 | (B3 c de) f2 | %54
 (e3 d c4) | %55
"^sub         –          stan  –  tial                   and           sin      –       cere,              and            sin     –      cere," (e3 f gf) ed | %56
 (c4 B4) | d4 (d2 e)f | (e3 d) c4 | (e2 d)c (d2 c)B | c8 | %61
"^When shall  I     wake    and        find   me  there?  When shall I   wake and" c2 c d c2 cd | %62
 ed cB A4 | A2 G A B2 c2 | %64
"^find   me   there?     When shall I  wake  and find me there?  When shall I wake  and    find  me there?     When shall  I  wake  and     find        me       there?   there?  there?  there?" fe dc B4 | %65
 cd e e A2 B2 | c2 c2 c4 | cd e f g2 c2 | c2 e2 d4- | d4 ef g d | e2 f2 ge f2 | f8 | e8 | c8 | %74
 e8 |] %75
V:2
 z8 | z8 | z8 | %3
"^My flesh shall slum      –      ber     in   the   ground, _________   in  the   ground,        in the ground, in the ground, in the ground, ___" c4 A2 A2 | %4
 (c3 B c2) c2 | c4 c4 | c8- | c8- | c8 | c4 c4 | d8- | d8 | e4 d4 | B8 | B4 B4 | c8 | c4 c4 | e8- | %18
 e8- | %19
"^_____________    Till  the last trumpet  joy–ful    sound.                           Then           burst             the     chains,       with     sweet                  sur  –   prise,             with   sweet        sur –" e8- | %20
 e8 | z4 E4 | G2 G2 A2 A2 | G4 E4 | ^F6 z2 | z4 G4 | (G2 A2 G2) GF | E6 EF | (G3 A G2) G2 | G6 D2 | %30
 (E3 F E2) F2 | %31
"^– prise,  and     in     my    Sav–ior's  im – age    rise,    and    in                 my   Sav– ior's         im    –      age                       rise.           This life's a dream, an  emp–  ty   show,           but" E6 EF | %32
 G2 G2 G2 F2 | F4 E4 |[K:C] F6 E2 | (F3 E D2) C2 | D4 (E2 F2) | (G2 A2) A4 | ^F8 ||[M:3/4] z4 E2 | %40
 F4 E2 | D4 G2 | F4 D2 | E4 E2 | %44
"^this       bright  world        to       which      I               go,         Hath   joys             sub – stan  –  tial               and                    sin  –   cere,       hath        joys   sub – stan–tial, joys sub –" F4 G2 | %45
 F4 D2 | (F>E D2) F2 ||[K:C][M:4/4] E8 | z4 D4 | (E3 D E2) G2 | G4 A4 | (G3 F E2) G2 | G8 | %53
 G4 G2 G2 | G2 G2 A2 F2 | %55
"^– stan–tial,  joys   sub  –  stan–tial  and     sin     –    cere,                                   and           sin     –    cere," G2 G2 G2 G2 | %56
 A2 F2 (G2 E2) | (F2 G)A G4- | G4 z4 | (E2 F)G (F2 G)A | G8 | %61
"^When shall  I     wake    and        find   me  there?  When shall I   wake and" GF E D CD EF | %62
 G2 A2 A4 | F2 E D E2 E2 | %64
"^find   me   there?     When shall I  wake  and find me there?  When shall I wake  and    find  me there?     When shall  I  wake  and     find        me       there?   there?  there?  there?" F2 G2 G4 | %65
 G2 G F E2 G2 | A2 A2 A4 | EF G A G2 A2 | G2 c2 B4- | B4 c2 B A | G2 A>B c>B A2 | A8 | G8 | E8 | %74
 G8 |] %75
V:3
 z8 | z8 | z8 | %3
"^My flesh shall slum      –       ber     in  the    ground,          in  the  ground, _________    in  the  ground, ________ in  the  ground," A4 E2 E2 | %4
 (A3 ^G) A2 E2 | A4 F4 | E8- | E8 | E4 E4 | A8- | A8- | A8 | c4 A4 | G8- | G8- | G8 | G4 G4 | c8- | %18
 c8 | %19
"^in the ground,    Till the last trumpet  joy – ful   sound.                                                                                          Then          burst   the chains, the     chains,         with   sweet         sur –" c4 c4 | %20
 B8 | z4 c4 | B2 B2 A2 A2 | e4 ^c4 | d6 z2 | z8 | z8 | z4 c4 | e>f ed e2 e2 | (d2 c>d B2) B2 | %30
 (c3 d c2) B2 | %31
"^–prise, and    in       my   Sav–ior's im– age      rise,    and   in                 my    Sav –ior's        im       –       –       age          rise.             This life's a dream, an emp– ty  show,            but" c6 cd | %32
 e2 ed c2 A2 | d4 ^c4 |[K:C] d6 ^c2 | (d3 e) d2 e2 | f4 (e2 d2) | (e2 f2 e2) d^c | d8 || %39
[M:3/4] z4 A2 | d4 e2 | f4 e2 | (d2 c2) B2 | c4 c2 | %44
"^this       bright  world        to       which      I               go,           Hath  joys             sub –stan       –      tial      and                    sin  –   cere,          and                  sin   –   cere," A4 G2 | %45
 A4 d2 | (c2 B2) A2 ||[K:C][M:4/4] G8 | z4 G4 | (c3 B) c2 d2 | (e3 d e2) d2 | (e3 f gf) ed | %52
 (c4 B4) | (d3 e fe) dc | (B4 A2) z2 | %55
"^sub         –          stan  –  tial                   and           sin      –       cere,              and            sin     –      cere," (c3 d ed) cB | %56
 (A4 G4) | (A2 B)c (B2 c)d | c8 | (c2 d)e (d2 e)f | e8 | %61
"^When shall  I     wake    and        find   me  there?  When shall I   wake and" ed c B A2 G2 | %62
 c2 c2 c4 | dc B A G2 G2 | %64
"^find   me   there?     When shall I  wake  and find me there?  When shall I wake  and    find  me there?     When shall  I  wake  and     find        me       there?   there?  there?  there?" d2 d2 d4 | %65
 ed c B c2 c2 | f2 f2 f4 | gf e d e2 c2 | e2 g2 g4- | g4 gf e f | g2 f2 e2 d2 | c8 | c8 | G8 | %74
 c8 |] %75
V:4
"^My flesh shall slum  –  ber    in       the          ground, _______________________________   in the ground,   in  the   ground,         in the ground, in the  ground, __________" A,4 E,2 E,2 | %1
 (F,3 E,) D,2 C,2 | D,4 E,4 | A,,8- | A,,8- | A,,8- | A,,8 | A,,4 A,,4 | A,,8 | A,,4 A,,4 | D,8- | %11
 D,8 | C,4 D,4 | G,,8 | G,,4 G,,4 | C,8- | C,8- | C,8- | C,8 | %19
"^in the ground,   Till the last trumpet  joy–ful sound. Then burst ________  the      chains          with      sweet        sur  –  prise,                   with     sweet             sur – prise _________" C,4 C,4 | %20
 E,8 | z4 [A,,A,]4 | E,2 E,2 F,2 D,2 | E,4 [A,,A,]4 | D,6 E,2 | (A,>B, A,B, C2) B,A, | %26
 (G,2 F,>G, E,2) E,2 | (A,3 B, A,2) A,,2 | E,6 E,F, | (G,3 A,) G,2 G,,2 | C,8- | %31
"^– prise, and     in     my Sav–ior's   im – age     rise,    and   in                 my    Sav – ior's       im      –        –       age           rise.                          This life's a dream, an    empty show, but" C,6 C,2 | %32
 C,2 C,D, E,2 F,2 | D,4 [A,,A,]4 |[K:C] D,6 A,,2 | (D,3 E, F,2) E,2 | D,4 (G,2 F,2) | %37
 (E,2 D,2 A,2) A,,2 | D,8 ||[M:3/4] z6 | z4 A,,2 | D,4 E,2 | F,4 G,2 | C, C, C,2 C,2 | %44
"^this       bright  world        to       which        I               go,                                      Hath  joys ______  sub – stan        –            tial      and  sin –cere,                           Hath       joys" F,4 E,2 | %45
 (D,>E,) F,2 G,2 | (A,2 G,2) F,2 ||[K:C][M:4/4] C,8 | z8 | z4 z2 G,2 | (C3 B, A,G,) F,2 | %51
 (E,3 D, C,2) C,2 | C,4 E,4 | G,8 | E,4 F,4 | %55
"^sub     –     stan – tial      and                    sin    –    cere,            and      sin  – cere,        sin      –        cere," E,4 C,2 E,2 | %56
 (F,4 E,4) | D,4 G,4 | C,4 F,4 | E,4 D,4 | C,8 | %61
"^When shall  I     wake    and        find   me  there?  When shall I   wake and" C,2 C, C, F,2 E,2 | %62
 C,2 F,2 F,4 | D,2 G, F, E,2 C,2 | %64
"^find   me   there?     When shall I  wake  and find me there?  When shall I wake  and    find  me there?     When shall  I  wake  and     find        me       there?   there?  there?  there?" D,2 G,2 G,4 | %65
 CB, A, G, A,2 E,2 | F,2 F,2 F,4 | E,D, C, F, E,2 F,2 | E,2 C,2 G,4- | G,4 C2 G, F, | %70
 E,2 D,2 C,2 D,>E, | F,8 | C,8 | C,8 | C,8 |] %75

